X:2282
T:Carol 
C:P Cain (Phil the Desert) West Baldwin
C:Traditional
O:Isle of Man
Z:Clague collection
B:Kiaull Vannin #282 
L:1/4
M:3/4 
K:G 
G|G2 G|d2 e|d2 c/B/|A2 A|B2 B|c2 e|d2 B/c/|
d2 c/B/|c2 d/c/|B2 c|d2 d/c/|B2 B|A2 A|G2|| 

